X: 1
T:Far From Home
M:4/4
R:reel 
A:Shetland
S:Chris Langan Weekend Session, Jan 1997
Z:WM - 20 Jan 1997
K:G
D2 | GEDE G3A | B2BA Bcd2 | GEDE G2B2 | AGAB AGED |
GEDE G3A | B2 BA Bcd2 |edef gedc|BGAF G2 :|
e2 | g2ge f2fd | edef edB2 | gedB G2B2 | AGAB AGE2 |
GEDE G3A | B2 BA Bcd2 |edef gedc|BGAF G2 :|
